X:1
T:2. Mon amy
T:(Ronde 2)
C:Tielman Susato
S:Tileman Susato: Danserye (1551)
R:Ronde
M:4/2
L:1/2
K:Ddor
DDAA|cB/A/BA|c>BAG|A>GFE::A/G/A/B/c>B|AGFD|G>EFD|
A/G/F/E/F2::DDE/F/G/A/|F>D E/F/G/A/|F>FEE|A>FGE|DDA>F|GED2:|
